assets/img/icons/instagram.svg

<svg width="20" height="20" viewBox="0 0 20 20" xmlns="http://www.w3.org/2000/svg"><title>instagram</title><desc>Created with Sketch.</desc><path d="M18 20H2c-.5-.1-.9-.3-1.3-.6-.4-.5-.6-.9-.7-1.4V1.9C.2 1 .9.2 1.9 0h16.2c.9.2 1.6.9 1.8 1.8.1.1.1.2.1.2v16c-.2.9-.9 1.6-1.8 1.8l-.2.2zM2.3 8.5V17c0 .2.1.4.3.5.2.1.4.2.6.2H17c.2 0 .4-.1.5-.3.1-.2.2-.3.2-.5V8.5H16c.3 1.3.3 2.5-.2 3.7-.5 1.2-1.2 2.2-2.3 2.9-1.9 1.3-4.5 1.4-6.5.2-1-.6-1.8-1.4-2.4-2.4-.8-1.4-.9-2.9-.6-4.4H2.3zM13.8 10c0-2.1-1.7-3.8-3.8-3.8C7.8 6.2 6.2 8 6.2 10c0 2.1 1.7 3.8 3.8 3.8 2.1 0 3.8-1.6 3.8-3.8zm2-3.8H17c.4 0 .8-.3.8-.8V3.1c0-.4-.3-.8-.8-.8h-2.3c-.4 0-.8.3-.8.8v2.5c.1.3.4.6.7.6h1.2z" fill="#71C9BD" fill-rule="evenodd"/></svg>

<?xml version="1.0" encoding="utf-8"?>
<!-- Generator: Adobe Illustrator 18.0.0, SVG Export Plug-In . SVG Version: 6.00 Build 0)  -->
<!DOCTYPE svg PUBLIC "-//W3C//DTD SVG 1.1//EN" "http://www.w3.org/Graphics/SVG/1.1/DTD/svg11.dtd" [
	<!ENTITY ns_extend "http://ns.adobe.com/Extensibility/1.0/">
	<!ENTITY ns_ai "http://ns.adobe.com/AdobeIllustrator/10.0/">
	<!ENTITY ns_graphs "http://ns.adobe.com/Graphs/1.0/">
	<!ENTITY ns_vars "http://ns.adobe.com/Variables/1.0/">
	<!ENTITY ns_imrep "http://ns.adobe.com/ImageReplacement/1.0/">
	<!ENTITY ns_sfw "http://ns.adobe.com/SaveForWeb/1.0/">
	<!ENTITY ns_custom "http://ns.adobe.com/GenericCustomNamespace/1.0/">
	<!ENTITY ns_adobe_xpath "http://ns.adobe.com/XPath/1.0/">
]>
<svg version="1.1" id="Layer_1" xmlns:x="&ns_extend;" xmlns:i="&ns_ai;" xmlns:graph="&ns_graphs;"
	 xmlns="http://www.w3.org/2000/svg" xmlns:xlink="http://www.w3.org/1999/xlink" x="0px" y="0px" viewBox="0 0 20 20"
	 enable-background="new 0 0 20 20" xml:space="preserve">
<metadata>
	<sfw  xmlns="&ns_sfw;">
		<slices></slices>
		<sliceSourceBounds  width="16383" height="20" x="-7795" y="-221.7" bottomLeftOrigin="true"></sliceSourceBounds>
	</sfw>
</metadata>
<g id="_x34_nSiYn.tif">
	<g>
		<path fill="#71C9BD" d="M18,20C12.7,20,7.4,20,2,20c0,0,0,0,0,0c-0.5-0.1-0.9-0.3-1.3-0.6C0.3,18.9,0.1,18.5,0,18c0,0,0-0.1,0-0.1
			C0,12.6,0,7.4,0,2.1C0,2.1,0,2,0,1.9C0.2,1,0.9,0.2,1.9,0C2,0,2,0,2.1,0c5.2,0,10.5,0,15.7,0C18,0,18,0,18.1,0
			c0.9,0.2,1.6,0.9,1.8,1.8C20,1.9,20,2,20,2c0,5.3,0,10.6,0,15.9c0,0,0,0.1,0,0.1c-0.2,0.9-0.9,1.6-1.8,1.8C18.1,19.9,18,20,18,20z
			 M2.3,8.5c0,0,0,0.1,0,0.1c0,2.8,0,5.5,0,8.3c0,0,0,0.1,0,0.1c0,0.2,0.1,0.4,0.3,0.5c0.2,0.1,0.4,0.2,0.6,0.2c4.6,0,9.1,0,13.7,0
			c0,0,0.1,0,0.1,0c0.2,0,0.4-0.1,0.5-0.3c0.1-0.2,0.2-0.3,0.2-0.5c0-2.8,0-5.6,0-8.3c0,0,0,0,0,0c0,0,0,0,0-0.1c-0.6,0-1.1,0-1.7,0
			c0.3,1.3,0.3,2.5-0.2,3.7c-0.5,1.2-1.2,2.2-2.3,2.9c-1.9,1.3-4.5,1.4-6.5,0.2c-1-0.6-1.8-1.4-2.4-2.4C3.8,11.5,3.7,10,4,8.5
			C3.5,8.5,2.9,8.5,2.3,8.5z M13.8,10c0-2.1-1.7-3.8-3.8-3.8c-2.2,0-3.8,1.8-3.8,3.8c0,2.1,1.7,3.8,3.8,3.8
			C12.1,13.8,13.8,12.2,13.8,10z M15.8,6.2c0.4,0,0.8,0,1.2,0c0.4,0,0.8-0.3,0.8-0.8c0-0.8,0-1.5,0-2.3c0-0.4-0.3-0.8-0.8-0.8
			c-0.8,0-1.5,0-2.3,0c-0.4,0-0.8,0.3-0.8,0.8c0,0.8,0,1.5,0,2.3c0,0.1,0,0.1,0,0.2c0.1,0.3,0.4,0.6,0.7,0.6
			C15,6.2,15.4,6.2,15.8,6.2z"/>
	</g>
</g>
</svg>
